src/icons/setup-tags.svg

<?xml version="1.0" encoding="UTF-8"?>
<svg width="25px" height="25px" viewBox="0 0 25 25" version="1.1" xmlns="http://www.w3.org/2000/svg" xmlns:xlink="http://www.w3.org/1999/xlink">
    <!-- Generator: Sketch 59 (86127) - https://sketch.com -->
    <title>HDL/Icon/Standard/Setup/tags</title>
    <desc>Created with Sketch.</desc>
    <g id="Colors" stroke="none" stroke-width="1" fill="none" fill-rule="evenodd">
        <g id="Setup-Icons" transform="translate(-118.000000, -244.000000)" fill="#25A6F7" fill-rule="nonzero">
            <g id="HDL/Icon/Standard/Setup/tags" transform="translate(118.000000, 244.000000)">
                <path d="M12.5630979,0.000943783263 C12.3995754,0.0030672956 12.236053,0.0136859446 12.0704065,0.0349221553 C11.7369905,0.0773951204 11.3738429,0.185701317 11.0850239,0.476640992 L0.415708206,11.1458498 C-0.138569402,11.7001219 -0.138569402,12.6132909 0.415708206,13.1675629 L3.50777103,16.276584 C3.53325506,16.3020678 3.56298671,16.325428 3.59271781,16.3445407 C3.60121248,16.3530353 3.61820184,16.3530353 3.62669652,16.3615299 C3.63306766,16.367901 3.63731473,16.372148 3.64368588,16.3785191 C3.6585517,16.3933848 3.66279876,16.414621 3.67766459,16.4294867 L11.8325555,24.584296 C12.3868331,25.138568 13.3000113,25.138568 13.8542889,24.584296 L24.5236046,13.9150871 C24.8103001,13.6283945 24.9228545,13.2610035 24.9653278,12.9297143 C25.0078012,12.5984252 24.9993066,12.2713837 24.9993066,11.9613307 L24.9993066,11.893374 C24.9993066,11.8424064 24.9993066,11.7680786 24.9993066,11.6725146 C24.9993066,11.6109289 24.9993066,11.4962516 24.9993066,11.4176768 C24.9993066,11.2562795 24.9993066,11.1097479 24.9993066,10.891012 C24.9993066,10.2411759 24.9993066,9.36410879 24.9993066,8.49553679 C24.9993066,6.7583928 24.9993066,5.01912474 24.9993066,4.97877529 C24.9993066,4.03587546 24.2241673,3.2628675 23.2833816,3.2628675 L21.7373502,3.2628675 L21.7373502,1.71685157 C21.7373502,0.773951747 20.9643345,0.000943783263 20.0214252,0.000943783263 L13.0387998,0.000943783263 C12.8880192,0.000943783263 12.7266203,-0.00117972908 12.5630979,0.000943783263 Z M12.5800872,1.08825169 C12.7181256,1.08825169 12.8774009,1.08825169 13.0387998,1.08825169 L20.0214252,1.08825169 C20.3760782,1.08825169 20.6500314,1.36220218 20.6500314,1.71685157 L20.6500314,3.2628675 L18.6113086,3.2628675 C18.5900722,3.23950723 18.5667117,3.21827102 18.5433512,3.19491076 C18.2269246,2.8784873 17.8064378,2.71921355 17.388075,2.71921355 C16.9697122,2.71921355 16.5492254,2.8784873 16.2327988,3.19491076 C16.2094383,3.21827102 16.1860783,3.23950723 16.1648414,3.2628675 C15.8993828,3.26074399 15.6169349,3.26074399 15.3323629,3.29684587 C14.9989469,3.33931884 14.6357993,3.44762503 14.3469803,3.73856471 L3.67766459,14.4077735 C3.59271781,14.4927195 3.5162657,14.581913 3.45680296,14.6796005 L1.18022923,12.4030496 C1.04006732,12.2628891 1.04219085,12.0484002 1.18022923,11.9103632 L11.8495449,1.24115436 C11.9068841,1.18381572 12.0151914,1.13284817 12.2233107,1.10524087 C12.3273704,1.09249926 12.4420488,1.08825169 12.5800872,1.08825169 Z M15.8420436,4.3501754 L23.2833816,4.3501754 C23.6380345,4.3501754 23.9119878,4.62412589 23.9119878,4.97877529 C23.9119878,5.01275366 23.9119878,6.7583928 23.9119878,8.49553679 C23.9119878,9.36410879 23.9119878,10.2411759 23.9119878,10.891012 C23.9119878,11.2159301 23.9119878,11.48351 23.9119878,11.6725146 C23.9119878,11.7680786 23.9119878,11.8424064 23.9119878,11.893374 C23.9119878,11.9188578 23.9119878,11.9315999 23.9119878,11.9443416 C23.9119878,11.9570837 23.9119878,11.9613307 23.9119878,11.9613307 C23.9119878,12.2904964 23.922606,12.5878071 23.8949984,12.7938009 C23.8673908,12.9997946 23.8185463,13.0911116 23.7590836,13.1505738 L13.0897679,23.8197826 C12.949606,23.9599436 12.7351149,23.9578196 12.5970766,23.8197826 L4.44218561,15.6649733 C4.3020237,15.5248128 4.30414723,15.3103239 4.44218561,15.1722869 L15.1115013,4.50307808 C15.1688405,4.44573944 15.2771478,4.39477188 15.4852671,4.36716459 C15.5893268,4.35442297 15.7040052,4.3501754 15.8420436,4.3501754 Z M20.6500314,5.98113726 C20.2316686,5.98113726 19.8111818,6.14041102 19.4947552,6.45683447 C18.8619019,7.08968192 18.8619019,8.13451686 19.4947552,8.76736377 C20.127609,9.40021122 21.1724544,9.40021122 21.8053076,8.76736377 C22.4381614,8.13451686 22.4381614,7.08968192 21.8053076,6.45683447 C21.488881,6.14041102 21.0683941,5.98113726 20.6500314,5.98113726 Z M20.6500314,7.06844517 C20.7880698,7.06844517 20.9324793,7.11304165 21.0407866,7.22134784 C21.2574011,7.43796024 21.2574011,7.78623855 21.0407866,8.0028504 C20.8241726,8.21946279 20.4758908,8.21946279 20.2592762,8.0028504 C20.0426622,7.78623855 20.0426622,7.43796024 20.2592762,7.22134784 C20.3675835,7.11304165 20.511993,7.06844517 20.6500314,7.06844517 Z" id="Shape"></path>
            </g>
        </g>
    </g>
</svg>

<?xml version="1.0" encoding="utf-8"?>
<!-- Generator: Adobe Illustrator 20.1.0, SVG Export Plug-In . SVG Version: 6.00 Build 0)  -->
<svg version="1.1" id="Layer_1" xmlns="http://www.w3.org/2000/svg" xmlns:xlink="http://www.w3.org/1999/xlink" x="0px" y="0px"
	 viewBox="0 0 25 25" style="enable-background:new 0 0 25 25;" xml:space="preserve">
<style type="text/css">
	.st0{fill:#25A6F7;}
</style>
<title>HDL/Icon/Standard/Setup/tags</title>
<desc>Created with Sketch.</desc>
<g id="Colors">
	<g id="Setup-Icons" transform="translate(-118.000000, -244.000000)">
		<g id="HDL_x2F_Icon_x2F_Standard_x2F_Setup_x2F_tags" transform="translate(118.000000, 244.000000)">
			<path id="Shape" class="st0" d="M12.6,0c-0.2,0-0.3,0-0.5,0c-0.3,0-0.7,0.2-1,0.4L0.4,11.1c-0.6,0.6-0.6,1.5,0,2l3.1,3.1
				c0,0,0.1,0,0.1,0.1c0,0,0,0,0,0c0,0,0,0,0,0c0,0,0,0,0,0.1l8.2,8.2c0.6,0.6,1.5,0.6,2,0l10.7-10.7c0.3-0.3,0.4-0.7,0.4-1
				s0-0.7,0-1v-0.1c0-0.1,0-0.1,0-0.2c0-0.1,0-0.2,0-0.3c0-0.2,0-0.3,0-0.5c0-0.6,0-1.5,0-2.4C25,6.8,25,5,25,5
				c0-0.9-0.8-1.7-1.7-1.7h-1.5V1.7C21.7,0.8,21,0,20,0h-7C12.9,0,12.7,0,12.6,0z M12.6,1.1c0.1,0,0.3,0,0.5,0h7
				c0.4,0,0.6,0.3,0.6,0.6v1.5h-2c0,0,0,0-0.1-0.1c-0.3-0.3-0.7-0.5-1.2-0.5s-0.8,0.2-1.2,0.5c0,0,0,0-0.1,0.1c-0.3,0-0.5,0-0.8,0
				c-0.3,0-0.7,0.2-1,0.4L3.7,14.4c-0.1,0.1-0.2,0.2-0.2,0.3l-2.3-2.3C1,12.3,1,12,1.2,11.9L11.8,1.2c0.1-0.1,0.2-0.1,0.4-0.1
				C12.3,1.1,12.4,1.1,12.6,1.1z M15.8,4.4h7.4c0.4,0,0.6,0.3,0.6,0.6c0,0,0,1.8,0,3.5c0,0.9,0,1.7,0,2.4c0,0.3,0,0.6,0,0.8
				c0,0.1,0,0.2,0,0.2c0,0,0,0,0,0.1s0,0,0,0c0,0.3,0,0.6,0,0.8c0,0.2-0.1,0.3-0.1,0.4L13.1,23.8c-0.1,0.1-0.4,0.1-0.5,0l-8.2-8.2
				c-0.1-0.1-0.1-0.4,0-0.5L15.1,4.5c0.1-0.1,0.2-0.1,0.4-0.1C15.6,4.4,15.7,4.4,15.8,4.4z M20.7,6c-0.4,0-0.8,0.2-1.2,0.5
				c-0.6,0.6-0.6,1.7,0,2.3c0.6,0.6,1.7,0.6,2.3,0c0.6-0.6,0.6-1.7,0-2.3C21.5,6.1,21.1,6,20.7,6z M20.7,7.1c0.1,0,0.3,0,0.4,0.2
				c0.2,0.2,0.2,0.6,0,0.8s-0.6,0.2-0.8,0c-0.2-0.2-0.2-0.6,0-0.8C20.4,7.1,20.5,7.1,20.7,7.1z"/>
		</g>
	</g>
</g>
</svg>
